svg/u1f344.svg

<svg viewBox="0 0 128 128" xmlns="http://www.w3.org/2000/svg">
  <path d="M39.92,75.22c0,0,0.47,6.72,0.28,10.14c-0.2,3.42-0.61,6.28-0.61,6.28l3.2,25.85l0.17,2.7 c0,0,5.63,3.25,17.33,3.25c17.54,0,25.28-2.78,27.9-8.35c2.11-4.51-1.57-14.73-2.32-18.25c-2.47-11.6-1.04-19.98-1.04-19.98 L39.92,75.22z" fill="#C4A878"/>
  <path d="M34.91,112.88c1.23,5.47,8.67,7.59,8.67,7.59s10.83,0.61,17.69-0.32c7.04-0.96,12.84-2.62,13.44-6.72 c0.6-4.1,0.44-6.86,0.16-11.2c-0.12-1.92-0.32-7.2-0.32-7.2s-7.99,0.41-18.67-0.44c-10.52-0.84-16.22-3.34-16.22-3.34 s-1.51,6.93-2.57,9.71C36.02,103.73,33.68,107.41,34.91,112.88z" fill="#E8D4AF"/>
  <path d="M62.66,3.98C23.48,3.93,5.89,30.38,6.57,56.76c0.61,23.71,36.82,26.65,54.89,26.91 c26.97,0.39,59.19-5.08,59.81-27.59C121.98,29.92,102.97,4.02,62.66,3.98z" fill="#FF521A"/>
  <path d="M61.51,9.51c-8.4-0.27-15.19,4.05-14.94,11.59c0.25,7.71,10.66,9.22,14.75,9.14 c5.54-0.11,14.35-2.2,14.79-9.06C76.53,14.63,69.91,9.78,61.51,9.51z" fill="#FFFFFF"/>
  <path d="M27.9,19.92c-2.88,2.35-4.42,6.82-2.16,8.91c2.12,1.95,5.93,0.45,8.54-1.8s5.14-5.19,3.67-7.76 C36.15,16.12,31.17,17.25,27.9,19.92z" fill="#FFFFFF"/>
  <path d="M16.4,46.28c-2.53,7.27-1.66,14.82,4.67,17.97s15.1-0.89,17.58-7.98c2.49-7.09,1.1-16.29-5.06-18.75 C27.43,35.06,18.93,39.01,16.4,46.28z" fill="#FFFFFF"/>
  <path d="M53.91,57.64c-0.13,8.94,7.27,16.93,16.77,16.4c9.5-0.53,15.21-6.14,15.41-15.5 c0.22-10.52-8.43-16.32-16.9-16.09S54.04,48.71,53.91,57.64z" fill="#FFFFFF"/>
  <path d="M83.63,24.71c-4.59,6.36-0.81,13.33,4.02,17.09c5.87,4.56,13.46,5.31,17.07-0.23 c4.08-6.27,0.88-12.36-3.31-16.65S88.21,18.35,83.63,24.71z" fill="#FFFFFF"/>
  <path d="M103.14,53.32c-3.44,1.4-3.01,5.62-1.88,7.85c1.12,2.21,4.14,4.13,6.7,3.23 c2.66-0.94,3.62-3.94,2.69-6.84C109.71,54.66,107.04,51.74,103.14,53.32z" fill="#FFFFFF"/>
</svg>

<svg viewBox="0 0 128 128" xmlns="http://www.w3.org/2000/svg">
  <defs/>
  <path d="M39.92,75.22 C39.92,75.22 40.39,81.94 40.2,85.36 C40,88.78 39.59,91.64 39.59,91.64 L42.79,117.49 L42.96,120.19 C42.96,120.19 48.59,123.44 60.29,123.44 C77.83,123.44 85.57,120.66 88.19,115.09 C90.3,110.58 86.62,100.36 85.87,96.84 C83.4,85.24 84.83,76.86 84.83,76.86 L39.92,75.22 Z" fill="#C4A878"/>
  <path d="M34.91,112.88 C36.14,118.35 43.58,120.47 43.58,120.47 C43.58,120.47 54.41,121.08 61.27,120.15 C68.31,119.19 74.11,117.53 74.71,113.43 C75.31,109.33 75.15,106.57 74.87,102.23 C74.75,100.31 74.55,95.03 74.55,95.03 C74.55,95.03 66.56,95.44 55.88,94.59 C45.36,93.75 39.66,91.25 39.66,91.25 C39.66,91.25 38.15,98.18 37.09,100.96 C36.02,103.73 33.68,107.41 34.91,112.88 Z" fill="#E8D4AF"/>
  <path d="M62.66,3.98 C23.48,3.93 5.89,30.38 6.57,56.76 C7.18,80.47 43.39,83.41 61.46,83.67 C88.43,84.06 120.65,78.59 121.27,56.08 C121.98,29.92 102.97,4.02 62.66,3.98 Z" fill="#FF521A"/>
  <path d="M61.51,9.51 C53.11,9.24 46.32,13.56 46.57,21.1 C46.82,28.81 57.23,30.32 61.32,30.24 C66.86,30.13 75.67,28.04 76.11,21.18 C76.53,14.63 69.91,9.78 61.51,9.51 Z" fill="#FFFFFF"/>
  <path d="M27.9,19.92 C25.02,22.27 23.48,26.74 25.74,28.83 C27.86,30.78 31.67,29.28 34.28,27.03 C36.89,24.78 39.42,21.84 37.95,19.27 C36.15,16.12 31.17,17.25 27.9,19.92 Z" fill="#FFFFFF"/>
  <path d="M16.4,46.28 C13.87,53.55 14.74,61.1 21.07,64.25 C27.4,67.4 36.17,63.36 38.65,56.27 C41.14,49.18 39.75,39.98 33.59,37.52 C27.43,35.06 18.93,39.01 16.4,46.28 Z" fill="#FFFFFF"/>
  <path d="M53.91,57.64 C53.78,66.58 61.18,74.57 70.68,74.04 C80.18,73.51 85.89,67.9 86.09,58.54 C86.31,48.02 77.66,42.22 69.19,42.45 C60.72,42.68 54.04,48.71 53.91,57.64 Z" fill="#FFFFFF"/>
  <path d="M83.63,24.71 C79.04,31.07 82.82,38.04 87.65,41.8 C93.52,46.36 101.11,47.11 104.72,41.57 C108.8,35.3 105.6,29.21 101.41,24.92 C97.22,20.63 88.21,18.35 83.63,24.71 Z" fill="#FFFFFF"/>
  <path d="M103.14,53.32 C99.7,54.72 100.13,58.94 101.26,61.17 C102.38,63.38 105.4,65.3 107.96,64.4 C110.62,63.46 111.58,60.46 110.65,57.56 C109.71,54.66 107.04,51.74 103.14,53.32 Z" fill="#FFFFFF"/>
</svg>
